li/brand-snupps.svg

<svg role="img" focusable="false" aria-hidden="true" xmlns="http://www.w3.org/2000/svg" viewBox="0 0 14 14" height="1em" width="1em">
  <path d="m 12.102379,6.1028774 c 0,1.5031766 -0.310883,3.3428468 -0.602558,3.9037246 -0.147411,0.28484 -0.317302,0.477502 -0.592916,0.599577 -0.221154,0.09965 -0.605747,0.230861 -0.907027,0.291483 -0.301283,0.06644 -1.503129,0.304771 -1.503129,0.304771 l 0,1.650579 C 8.493559,12.936056 8.4294,13 8.3460659,13 c -0.032055,0 -0.06406,-0.01661 -0.086502,-0.02491 l -2.765924,-1.769166 c 0,0 -1.1922825,-0.230862 -1.4935222,-0.301449 C 3.6956491,10.829733 3.3174352,10.708489 3.099508,10.609666 2.8238597,10.487592 2.654006,10.292439 2.5065559,10.01009 2.3463095,9.7053192 2.1828735,9.0261867 2.0642836,8.2248966 L 8.0480191,8.5039239 A 0.4514011,0.4514011 0 0 0 8.4999386,8.0521655 c 0,-0.2275401 -0.1666274,-0.4168801 -0.3845917,-0.4484367 L 2.2533922,6.7502871 C 2.0514495,6.7087651 1.9008097,6.5260688 1.9008097,6.3109852 1.8976197,6.2407302 1.8976197,6.1734646 1.8976197,6.1028774 1.8976197,4.599701 2.2117347,2.760031 2.503368,2.199153 2.6507791,1.9143127 2.8238607,1.7282945 3.0962802,1.5995766 3.9520449,1.195984 5.7083795,0.99999995 6.9999989,0.99999995 c 1.7627526,0 3.2819461,0.32387105 3.9037191,0.59957665 0.275606,0.1220744 0.445505,0.3172274 0.592916,0.5995764 0.157061,0.3047709 0.320491,0.9807476 0.439086,1.7787989 L 5.9519851,3.6989246"/>
</svg>

<svg aria-hidden="true" xmlns="http://www.w3.org/2000/svg" viewBox="0 0 14 14" height="1em" width="1em">
  <path d="M12.102 6.103c0 1.503-.31 3.343-.602 3.904-.148.284-.317.477-.593.6-.221.099-.606.23-.907.29-.301.067-1.503.305-1.503.305v1.651a.15.15 0 0 1-.15.147c-.033 0-.065-.017-.087-.025l-2.766-1.77s-1.193-.23-1.494-.3a5.998 5.998 0 0 1-.9-.295c-.276-.122-.446-.318-.593-.6-.16-.305-.324-.984-.443-1.785l5.984.279a.451.451 0 0 0 .452-.452.452.452 0 0 0-.385-.448L2.253 6.75a.447.447 0 0 1-.352-.439c-.003-.07-.003-.138-.003-.208 0-1.503.314-3.343.605-3.904.148-.285.32-.47.593-.6C3.952 1.197 5.708 1 7 1c1.763 0 3.282.324 3.904.6.275.122.445.317.593.6.157.304.32.98.439 1.778l-5.984-.28"/>
</svg>
